!!!!SEGMENT: pl-cz--d-ii-28--001-006_elsner-jozef--missa-f-op-85-agnus-dei.krn
!!!cenid: 18xx:178
!!!COM: Elsner, Józef
!!!COM-rismID: pe30000957
!!!CDT: 1769/06/01-1854/04/18
!!!CNT: Polish
!!!OPR: Missa F op. 85
!!!OTL: Agnus Dei
!!!OMV: 006
!!!PDT: 1847
!!!AGN: Sacred; Mass
!!!YEC: Copyright 2022 Narodowy Instytut Fryderyka Chopina (https://polishscores.org)
!!!YEM: License CC-BY-4.0 (https://creativecommons.org/licenses/by/4.0)
!!!SMS-siglum: PL-CZ
!!!SMS-shelfmark: D II-28
!!!SMS-shelfwork: 001-006 M
!!!NIFC-rismSourceID: 991017962
!!!NIFC-rismChildID: 991017962
!!!NIFC-islandoraID:
!!!URL-pdf-islandora:
!!!URL-scan:
!!!IIIF:
!!!ONB-nifc: UWAGA: części Mszy: Kyrie, Gloria, Sanctus, Benedictus, Agnus Dei
!!!AIN: 1 bass 1 organ 1 tenor
!!!key: d
**kern	**kern	**kern	**text	**kern	**text	**kern	**text
*part3	*part3	*part2	*	*part1	*	*part1	*
*staff5	*staff4	*staff3	*	*staff2	*	*staff1	*
*Iorgan	*Iempty	*Ibass	*	*Itenor	*	*Iempty	*
*I"Organo	*	*I"Basso	*	*I"Tenori	*	*I"	*
*	*	*	*	*mI"Tenore II	*	*mI"Tenore I	*
*I'Org	*	*I'B	*	*I'T	*	*I'	*
*	*	*	*	*	*	*mI'T	*
*clefF4	*clefG2	*clefF4	*	*clefC4	*	*clefC4	*
*	*	*	*	*mclefGv2	*	*mclefGv2	*
*k[b-]	*k[b-]	*k[b-]	*	*k[b-]	*	*k[b-]	*
*d:	*d:	*d:	*	*d:	*	*d:	*
*M3/4	*M3/4	*M3/4	*	*M3/4	*	*M3/4	*
=1	=1	=1	=1	=1	=1	=1	=1
*	*	*	*	*^	*	*	*
!!!OMD:
!!!OMD-mod: Andante
!	!	!	!	!	!	!	!LO:TX:a:B:t=Andante:mod=	!
2DD/ 2D	2d/ 2f	2D\	A-	2F/	2F\	A-	2F/	A-
4CC/ 4C	4e/ 4g	4C\	-gnus	4E/	4E\	-gnus	4G/	-gnus
=2	=2	=2	=2	=2	=2	=2	=2	=2
8BBB-/L 8BB-	8d/L 8g	8BB-/L	De-	8D/L	4ryy	De-	8G/L	De-
8AAA/J 8AA	8c#X/J 8e 8a	8AA/J	-i	8C#X/J	.	-i	8A/J	-i
4AAA/ 4AA	4c#/ 4e 4a	4AA/	qui	4C#/	4C#\	qui	4A/	qui
4GGG/ 4GG	4d/ 4b-	4GG/	.	4D/	4D\	.	4B-/	.
=3	=3	=3	=3	=3	=3	=3	=3	=3
*	*^	*	*	*	*	*	*	*
4AAA/ 4AA	8a/L	4f\	4AA/	tol-	8F/L	8F\L	tol-	8A/L	tol-
.	8dd/J	.	.	.	8A/J	8A\J	.	8d/J	.
4AAA/ 4AA	4a/	4f\	4AA/	-lis	4F/	4F\	-lis	4A/	-lis
!	!	!	!	!	!	!	!	!LO:TX:t=P:problem: niekompletne tt. 3-5 uzupełnione na podstawie identycznego druku sygn. D II-30	!
4AAA/ 4AA	4g/	4e\	4AA/	qui	4E/	4E\	qui	4G/	qui
*	*v	*v	*	*	*v	*v	*	*	*
=4	=4	=4	=4	=4	=4	=4	=4
!	!	!	!	!	!	!LO:TX:t=P:problem: niekompletny t. 4 uzupełniony na podstawie identycznego druku sygn. D II-30	!
4AAA/ 4AA	8d/L 8f	4AA/	tol-	8D/L	tol-	8F/L	tol-
.	8f/J 8a	.	.	8F/J	.	8A/J	.
4AAA/ 4AA	4d/ 4f	4AA/	-lis	4D/	-lis	4F/	-lis
4AAA/ 4AA	8c#X/L 8e	4AA/	pec-	8C#X/L	pec-	8E/L	pec-
!	!	!	!	!	!	!LO:TX:t=P:problem:niejednoznaczny zapis łuku	!
.	8a/J	.	.	8F/J	.	(8A/J	.
=5	=5	=5	=5	=5	=5	=5	=5
2.AAA/ 2.AA	4f/ 4a	2AA/	-ca-	4F/	-ca-	4A/	-ca-
.	4e/ 4g	.	.	4E/	.	4G/)	.
.	4d/ 4f	4AA/	-ta	4D/	-ta	4F/	-ta
=6	=6	=6	=6	=6	=6	=6	=6
2AAA/ 2AA	8c#X/L 8e	4AA/	mun-	8C#X/L	mun-	8E/L	mun-
.	8d/J 8f	.	.	8D/J	.	8F/J	.
.	4c#/ 4e	4AA/	-di	4C#/	-di	4E/	-di
8C#X/L	8e/L 8a	8C#X/	mi-	8E/	mi-	8A\	mi-
8C#/J	8e/J 8a	8C#/	-se-	8E/	-se-	8A\	-se-
=7	=7	=7	=7	=7	=7	=7	=7
8D/L	8f/L 8b-	8D/L	-re-	8F/L	-re-	8B-\L	-re-
8C#X/J	8e/J 8a	8C#X/J	.	8E/J	.	8A\J	.
4C#/	4e/ 4a	4C#/	-re	4E/	-re	4A\	-re
8C#/L	8a\L 8ee	8C#/	mi-	8A\	mi-	8e\	mi-
8C#/J	8a\J 8ee	8C#/	-se-	8A\	-se-	8e\	-se-
=8	=8	=8	=8	=8	=8	=8	=8
*	*^	*	*	*^	*	*	*
8D\L	8ff/L	4a\	8D\L	-re-	4A\	4ryy	-re-	8f\L	-re-
8F\J	8dd/J	.	8F\J	.	.	.	.	8d\J	.
4F\	4dd/	4a\	4F\	-re	4A\	4ryy	-re	4d\	-re
8FF/L 8F	8g#X/L 8bn 8dd	4ryy	8F\	mi-	8Bn/	8G#X\	mi-	8d\	mi-
8FF/J 8F	8g#/J 8b 8dd	.	8F\	-se-	8B/	8G#\	-se-	8d\	-se-
*	*v	*v	*	*	*	*	*	*	*
=9	=9	=9	=9	=9	=9	=9	=9	=9
4EE/ 4E	4.a/ 4.cc	4.E\	-re-	4.A/	4.A\	-re-	4.c\	-re-
4EE/ 4E	.	.	.	.	.	.	.	.
.	8cc/ 8ee	8E\	-re	8c\	8ryy	-re	8e\	-re
4EE/ 4E	8e/L 8a 8cc	4E\	no	8A\L	4ryy	no	8c\L	no-
.	8d/J 8g#X 8bn	.	.	8G#X\J	.	.	8Bn\J	.
*	*	*	*	*v	*v	*	*	*
!!LO:LB:g=original
=10	=10	=10	=10	=10	=10	=10	=10
!	!LO:TX:t=P:problem:brak t. 10	!	!	!	!	!	!
!	!LO:TX:t=P:problem:brak t. 10	!LO:TX:t=P:problem:brak połowy t. 10	!	!	!	!LO:TX:t=P:problem: niekompletny t. 10 uzupełniony na podstawie identycznego druku sygn. D II-30	!
2.r	2.r	2ryy	.	2A\	-bis	2A\	-bis
.	.	4r	.	4r	.	4r	.
=11	=11	=11	=11	=11	=11	=11	=11
*	*^	*	*	*^	*	*	*
!	!LO:TX:t=P:problem:brak połowy t. 11	!	!	!	!	!	!	!	!
2AA/ 2A	2ryy	2ryy	2A\	A-	2A/	2A\	A-	2c\	A-
4GG/ 4G	4dd/	4bn\	4G\	-gnus	4Bn/	4ryy	-gnus	4d\	-gnus
*	*v	*v	*	*	*v	*v	*	*	*
=12	=12	=12	=12	=12	=12	=12	=12
8FF/L 8F	8a/L 8dd	8F\L	De-	8A/L	De-	8d\L	De-
!	!LO:SIC:v:o=8g#X/J 8b- 8ee	!	!	!	!	!	!
8EE/J 8E	8g#J 8bn 8ee	8E\J	-i	8G#X/J	-i	8e\J	-i
!	!LO:SIC:v:o=4g#/ 4b- 4ee	!	!	!	!	!	!
4EE/ 4E	4g# 4bn 4ee	4E\	qui	4G#/	qui	4e\	qui
4DD/ 4D	4a/ 4ff	4D\	.	4A/	.	4f\	.
=13	=13	=13	=13	=13	=13	=13	=13
*	*^	*	*	*	*	*	*
4EE/ 4E	8ee/L	4cc\	4E\	tol-	8c\L	tol-	8e\L	tol-
.	8aa/J	.	.	.	8e\J	.	8a\J	.
4EE/ 4E	4cc\ 4ee	4ryy	4E\	-lis	4c\	-lis	4e\	-lis
4EE/ 4E	4bn\ 4dd	4ryy	4E\	qui	4Bn\	qui	4d\	qui
=14	=14	=14	=14	=14	=14	=14	=14	=14
4EE/ 4E	8a\L 8cc	4ryy	4E\	tol-	8A\L	tol-	8c\L	tol-
.	8cc\J 8ee	.	.	.	8c\J	.	8e\J	.
4EE/ 4E	4a\ 4cc	4ryy	4E\	-lis	4A\	-lis	4c\	-lis
4EE/ 4E	8bn/L	4g#X\	4E\	pec-	(8G#X\L	pec-	8Bn\L	pec-
.	8ee/J	.	.	.	8c\J)	.	8e\J	.
*	*v	*v	*	*	*	*	*	*
=15	=15	=15	=15	=15	=15	=15	=15
2.EE/ 2.E	4cc\ 4ee	2E\	-ca-	4c\	-ca-	(4e\	-ca-
.	4bn\ 4dd	.	.	4Bn\	.	4d\)	.
.	4a\ 4cc	4E\	-ta	4A\	-ta	4c\	-ta
=16	=16	=16	=16	=16	=16	=16	=16
2EE/ 2E	8g#X\L 8bn	4E\	mun-	8G#X\L	mun-	8Bn\L	mun-
.	8a\J 8cc	.	.	8A\J	.	8c\J	.
.	4g#\ 4b	4E\	-di	4G#/	-di	4B\	-di
8GG#X/L 8G#X	8b\L 8ee	8G#X\	mi-	8Bn\	mi-	8e\	mi-
8GG#/J 8G#	8b\J 8ee	8G#\	-se-	8B\	-se-	8e\	-se-
=17	=17	=17	=17	=17	=17	=17	=17
*	*^	*	*	*^	*	*	*
8AA/L 8A	8cc\L 8ff	4ryy	8A\L	-re-	8c\L	4ryy	-re-	8f\L	-re-
8GG#X/J 8G#X	8bn\J 8ee	.	8G#X\J	.	8Bn\J	.	.	8e\J	.
4GG#/ 4G#	4b\ 4ee	4ryy	4G#\	-re	4B\	4ryy	-re	4e\	-re
8GGn/L 8Gn	8cc#X/L 8ee	8b-X\L	8Gn\	mi-	8c#X/	8B-X\	mi-	8e\	mi-
8GG/J 8G	8cc#/J 8ee	8b-\J	8G\	-se	8c#/	8B-\	-se-	8e\	-se-
*	*v	*v	*	*	*	*	*	*	*
=18	=18	=18	=18	=18	=18	=18	=18	=18
8FF/L 8F	8a\L 8dd	8F\L	re-	4d/	4A\	-re-	8d\L	-re-
8DD/J 8D	8a\J 8dd 8ff	8D\J	.	.	.	.	8f\J	.
4DD/ 4D	4a\ 4dd 4ff	4D\	-re	4d/	4A\	-re	4f\	-re
8BBB-/L 8BB-	8b-\L 8dd 8ff	8BB-/	mi-	8d\ 8g	4ryy	mi-	8f\	mi-
8BBB-/J 8BB-	8b-\J 8dd 8ff	8BB-/	-se-	8d\ 8g	.	-se-	8f\	-se-
=19	=19	=19	=19	=19	=19	=19	=19	=19
4CC/ 4C	4.a/ 4.cc 4.ff	4.C/	-re-	4.A/	4.A\	-re-	4.f\	-re-
4CC/ 4C	.	.	.	.	.	.	.	.
.	8f/ 8a	8C/	-re	8F/	8ryy	-re	8A\	-re
4CC/ 4C	8g/L 8b-	4C/	no-	8G/L	4ryy	no-	8B-\L	no-
.	8e/J 8g 8cc	.	.	8E/J	.	.	8c\J	.
!!LO:LB:g=original
=20	=20	=20	=20	=20	=20	=20	=20	=20
!	!	!	!	!	!	!	!LO:TX:t=P:problem: niekompletne tt. 20-22 uzupełnione na podstawie identycznego druku sygn. D II-30	!
!	!	!	!	!	!	!	!LO:TX:t=P:problem:brak t. 20	!
2FF/ 2F	4.f/ 4.a	2F\	-bis	2F/	2F\	-bis	2.r	.
.	8g/L	.	.	.	.	.	.	.
4r	8f/ 8a	4r	.	4r	4ryy	.	.	.
.	8g/J 8b-	.	.	.	.	.	.	.
*	*	*	*	*v	*v	*	*	*
=21	=21	=21	=21	=21	=21	=21	=21
2.FF/ 2.F	2a\ 2cc	2F\	A-	2A\	A-	2c\	-A-
.	4b-\ 4dd	4F\	-gnus	4B-\	-gnus	4d\	-gnus
=22	=22	=22	=22	=22	=22	=22	=22
*	*	*	*	*^	*	*	*
2FF/ 2F	8g\L 8b- 8ee	4F\	De-	8B-/L	8G\L	De-	8e\L	De-
.	8f\J 8a 8ff	.	.	8A/J	8A\J	.	8f\J	.
.	4f\ 4a 4ff	4F\	-i	4A\	2ryy	-i	4f\	-i
4DD/ 4D	4f\ 4bn 4ff	4D\	qui	4Bn\	.	qui	4f\	qui
*	*	*	*	*v	*v	*	*	*
=23	=23	=23	=23	=23	=23	=23	=23
*	*^	*	*	*	*	*	*
2CC/ 2C	8cc/L 8ee	2g\	4C/	tol-	8c\L	tol-	8e\L	tol-
.	8dd/J 8ff	.	.	.	8d\J	.	8f\J	.
.	4cc/ 4ee	.	4C/	-lis	4c\	-lis	4e\	-lis
4DD/ 4D	4bn/ 4ff	4f\	4D/	qui	4Bn\	qui	4f\	qui
*	*v	*v	*	*	*	*	*	*
=24	=24	=24	=24	=24	=24	=24	=24
2CC/ 2C	8cc/L 8ee	4C/	tol-	8c\L	tol-	8e\L	tol-
.	8dd/J 8ff	.	.	8d\J	.	8f\J	.
.	4cc/ 4ee	4C/	-lis	4c\	-lis	4e\	-lis
4CC/ 4C	4g/ 4bn 4dd	4C/	pec-	4Bn\	pec-	4d\	pec-
=25	=25	=25	=25	=25	=25	=25	=25
*	*^	*	*	*	*	*	*
2.CC/ 2.C	8cc/L 8ee	2g\	2C/	-ca-	8c\L	-ca-	8e\L	-ca-
.	8dd/J 8ff	.	.	.	8d\J	.	8f\J	.
.	4cc/ 4ee	.	.	.	4c\	-ta	4e\	-ta
.	4bn/ 4dd	4g\	4C/	-ta	4Bn\	mun-	4d\	mun-
=26	=26	=26	=26	=26	=26	=26	=26	=26
[2.CC/ [2.C	4.cc\ 4.ee	2g\	4C/	mun-	4c\	.	4e\	.
.	.	.	4C/	-di	4c\	-di	4e\	-di
.	8bn\L 8dd	.	.	.	.	.	.	.
.	8dd\ 8ff	4ryy	4r	.	4r	.	4r	.
.	8cc\J 8ee	.	.	.	.	.	.	.
*	*v	*v	*	*	*	*	*	*
=27	=27	=27	=27	=27	=27	=27	=27
2.CC/_ 2.C_	4.g\ 4.bn 4.dd	4.C/	Don-	4.Bn\	Don-	4.d\	Don-
.	8g\ 8b 8dd	8C/	-na	8B\	-na	8d\	-na
.	8g\L 8cc 8ee	8C/	no-	8c\	no-	8e\	no-
.	8f\J 8b 8dd	8C/	-bis	8B\	-bis	8d\	-bis
=28	=28	=28	=28	=28	=28	=28	=28
!	!LO:TX:t=P:problem:1 półnuta	!	!	!	!	!	!
2.CC/_ 2.C_	(>2e/ 2g 2cc	2.C/	pa-	2.c\	pa-	2.c\	pa-
.	8f/L) 8a 8cc	.	.	.	.	.	.
.	(>8e/J 8g	.	.	.	.	.	.
=29	=29	=29	=29	=29	=29	=29	=29
!!!OMD:
!!!OMD-mod: Dona ut Kyrie al Segno
2CC/] 2C]	2e/) 2g 2cc	2C/	-cem	2c\	-cem.	2c\	-cem.
4r	4r	4r	.	4r	.	4r	.
!	!LO:TX:b:rj:t=Dona ut Kirie al Segno.:mod=	!	!	!	!	!	!
==	==	==	==	==	==	==	==
*-	*-	*-	*-	*-	*-	*-	*-
!!!system-decoration: [(s1,s2,s3)],{(s4,s5)}
!!!filter-modern: sic -sq | autostem -r | shed -e "s/TX(.*):t=P:/tx$1:t=P:/LG" | modori -m
!!!ENC: Anna Matuszewska
!!!END: 2020-04-01
!!!EED: Anna Matuszewska
!!!EEV: 2020-04-01
!!!ENC-modern: Leszek Kubiak
!!!END-modern: 2022-12-01
